X:1
T:Lady Forbes of New & Edinglassie
T:Lady Forbes of New & Edinglassie
T:William Marshall
C:William Marshall
%%score { ( 1 3 ) | ( 2 4 ) }
L:1/8
M:4/4
K:Bb
V:1 treble nm="Moderately\nSLOW\nwith\nexpression"
V:3 treble 
V:2 bass 
V:4 bass 
V:1
 de | [df]3 [eg] [df][fd'][ec'][db] | agfe{e} d3 e | f2 [dfb]2 [df-b]2 ([fb]c'/d'/) | %4
 (f'3 .c') c'2 de | [df]3 [eg] ([df]d'c'b) | (agfa) c'3 b | (ba)gf ([ca][Bg])[Af][G=e] | %8
{[Bg]} [Af]4 z2 |] f2 | f2 gd e3 d | (c/d/e/f/ g).[_DB] ([=DFB]2 [CAf]).F | (BG) d2 (cF) c2 | %13
 ((de/)f/ g/f/)e/d/ [Bd]2 [Ac] z | f2 gd e3 d | (c/d/e/f/ g).B ([FB]2 [FA])F | %16
 (B/F/G/A/ B/c/d/e/) (f/e/d/e/ f/g/a/b/) |{F} [FBd]2{e} [EAc]>[DB] !fermata![GB]2 |] %18
V:2
 z2 | B,,2 B,2 B,,4 | F,2 G,A, B,2 C2 | [B,D]2 [F,D]2 [F,D]2- [F,D]C/B,/ | FF,F=E F_EDC | %5
 [B,F]4- [B,F][B,D][CE][DF] | [F,CF]6 [G,B,CE]2 | [F,F]2 A,2 C2 C,,2 | z/ F,/C/=E/ F2 z2 |] x2 | %10
 [B,DF]2 [=B,DG]2 [CEG]2 B,2 | [A,CF]2 E,=E, F,3 E, | D,3 B,, [A,,A,]3 [F,,F,] | %13
 [B,,B,]3 D, F,3 E | [B,D]2 E=B, C_B,A,B, | [E,C]2 [=E,C]2 D2 C2 | %16
 [D,B,]2 [C,E,F,A,]2 [B,,F,B,]3 D, | F,2 [F,,F,]2 !fermata![B,,,B,,]2 |] %18
V:3
 x2 | x8 | c4 x4 | x8 | x8 | x8 | x8 | x8 | x6 |] x2 | x8 | x8 | x8 | x8 | x8 | x8 | x8 | x6 |] %18
V:4
 x2 | x8 | x8 | x8 | x8 | x8 | x8 | x8 | x6 |] x2 | x8 | x8 | x8 | x8 | x8 | x4 F,3 _E, | x8 | %17
 x6 |] %18

